icons/crop.svg

<svg width="24" height="24" viewBox="0 0 24 24" fill="none" xmlns="http://www.w3.org/2000/svg">
<path fill-rule="evenodd" clip-rule="evenodd" d="M6 2C6.55228 2 7 2.44772 7 3V17H14C14.5523 17 15 17.4477 15 18C15 18.5523 14.5523 19 14 19H6C5.44772 19 5 18.5523 5 18V7H3C2.44772 7 2 6.55228 2 6C2 5.44772 2.44772 5 3 5H5V3C5 2.44772 5.44772 2 6 2ZM9 6C9 5.44772 9.44772 5 10 5H18C18.5523 5 19 5.44772 19 6V17H21C21.5523 17 22 17.4477 22 18C22 18.5523 21.5523 19 21 19H19V21C19 21.5523 18.5523 22 18 22C17.4477 22 17 21.5523 17 21V7H10C9.44772 7 9 6.55228 9 6Z" fill="black"/>
</svg>

<svg
  width="24"
  height="24"
  viewBox="0 0 24 24"
  xmlns="http://www.w3.org/2000/svg"
>
  <path
    fill-rule="evenodd"
    clip-rule="evenodd"
    d="M6 2a1 1 0 0 1 1 1v14h7a1 1 0 1 1 0 2H6a1 1 0 0 1-1-1V7H3a1 1 0 0 1 0-2h2V3a1 1 0 0 1 1-1zm3 4a1 1 0 0 1 1-1h8a1 1 0 0 1 1 1v11h2a1 1 0 1 1 0 2h-2v2a1 1 0 1 1-2 0V7h-7a1 1 0 0 1-1-1z"
  />
</svg>
